X: 706
T: Fang sijie
L: 1/8
M: 2/4
K: Eb
g c e f [I:setbarnb 1]| 
g g f e | 
g g c e | 
c BG2 | 
B G B c | 
e3c | 
g2f e | 
c B G c | 
B4 | 
B ce2 | 
gf2e | 
G2B2 | 
e2c B | 
B F G F | 
E4 | 
GG2B | 
c4 | 
c e c B | 
B F G F | 
E3B | 
G F E C | 
E4 |]

@@@ Tune index: 9580
